storage/app/icons/phosphoricons/fill/text-align-center-fill.svg

<svg xmlns="http://www.w3.org/2000/svg" fill="currentColor" viewBox="0 0 256 256"><path d="M208 32H48a16 16 0 0 0-16 16v160a16 16 0 0 0 16 16h160a16 16 0 0 0 16-16V48a16 16 0 0 0-16-16m-32 152H80a8 8 0 0 1 0-16h96a8 8 0 0 1 0 16m16-32H64a8 8 0 0 1 0-16h128a8 8 0 0 1 0 16M72 112a8 8 0 0 1 8-8h96a8 8 0 0 1 0 16H80a8 8 0 0 1-8-8m120-24H64a8 8 0 0 1 0-16h128a8 8 0 0 1 0 16"/></svg>

<svg xmlns="http://www.w3.org/2000/svg" viewBox="0 0 256 256" fill="currentColor"><path d="M208,32H48A16,16,0,0,0,32,48V208a16,16,0,0,0,16,16H208a16,16,0,0,0,16-16V48A16,16,0,0,0,208,32ZM176,184H80a8,8,0,0,1,0-16h96a8,8,0,0,1,0,16Zm16-32H64a8,8,0,0,1,0-16H192a8,8,0,0,1,0,16ZM72,112a8,8,0,0,1,8-8h96a8,8,0,0,1,0,16H80A8,8,0,0,1,72,112ZM192,88H64a8,8,0,0,1,0-16H192a8,8,0,0,1,0,16Z"/></svg>
